priv/static/svgs/icons_new/sport-curling.svg

<svg width="32" height="32" viewBox="0 0 32 32" fill="none" xmlns="http://www.w3.org/2000/svg">
<path d="M22.2609 26H9.73913C6.57217 26 4 23.464 4 20.3416C4 17.2191 6.57217 14.6831 9.73913 14.6831H22.2609C25.4278 14.6831 28 17.2191 28 20.3416C28 23.464 25.4278 26 22.2609 26Z" stroke="black" stroke-miterlimit="10"/>
<path d="M21.3374 8.78292C20.7843 7.11626 19.2191 6 17.4452 6H12.8017C11.8 6 10.9809 6.80247 10.9809 7.79527C10.9809 8.78807 11.8 9.59053 12.8017 9.59053H17.127C17.5026 9.59053 18.1443 9.66255 18.1913 10.4753C18.2383 11.2881 17.5078 11.3344 17.127 11.3344H11.6643C10.0313 11.3344 8.70609 12.2449 8.70609 13.8549V14.6831H23.1009L21.3374 8.78292Z" stroke="black" stroke-miterlimit="10"/>
</svg>

<svg width="32" height="32" viewBox="0 0 32 32" fill="none" xmlns="http://www.w3.org/2000/svg">
  <symbol id="item" viewBox="0 0 32 32" stroke-width="1" fill="none">
    <path d="M22.26 26H9.74C6.571 26 4 23.464 4 20.342c0-3.123 2.572-5.659 5.74-5.659h12.52c3.168 0 5.74 2.536 5.74 5.659C28 23.464 25.428 26 22.26 26ZM21.337 8.783A4.081 4.081 0 0 0 17.445 6h-4.643c-1.002 0-1.821.802-1.821 1.795 0 .993.819 1.796 1.82 1.796h4.326c.376 0 1.017.072 1.064.884.047.813-.683.86-1.064.86h-5.463c-1.633 0-2.958.91-2.958 2.52v.828h14.395l-1.764-5.9Z" stroke="currentColor" stroke-miterlimit="10"/>
  </symbol>
</svg>
